dist/svgs/unicons/line/windsock.svg

<svg xmlns="http://www.w3.org/2000/svg" viewBox="0 0 24 24"><path d="M18.08 5L10 4.33l-3-.25V3a1 1 0 00-2 0v18a1 1 0 002 0v-7.08l3-.25 8.08-.67a1 1 0 00.92-1V6a1 1 0 00-.92-1zM9 11.75l-2 .16V6.09l2 .16zm4-.34l-2 .17V6.42l2 .17zm4-.33l-2 .17v-4.5l2 .17z"/></svg>

<svg xmlns="http://www.w3.org/2000/svg" viewBox="0 0 24 24"><path d="M18.08,5,10,4.33h0L7,4.08V3A1,1,0,0,0,5,3V21a1,1,0,0,0,2,0V13.92l3-.25h0L18.08,13A1,1,0,0,0,19,12V6A1,1,0,0,0,18.08,5ZM9,11.75l-2,.16V6.09l2,.16Zm4-.34-2,.17V6.42l2,.17Zm4-.33-2,.17V6.75l2,.17Z"/></svg>
